file/dove.svg

<svg clip-rule="evenodd" fill-rule="evenodd" stroke-linejoin="round" stroke-miterlimit="1.41421" viewBox="0 0 560 400" xmlns="http://www.w3.org/2000/svg"><path d="m95.363 89.903c13.407-.928 27.234.657 39.535 6.3 10.968 4.958 20.49 13.44 25.918 24.258 5.387 10.518 6.786 22.889 4.462 34.43-2.2 11.165-8.128 21.575-16.738 29.038-9.556 8.396-21.832 13.082-34.219 15.336-11.178 2.07-22.595 2.386-33.935 2.207-8.639-.119-17.282-.129-25.905-.686-.917-.115-2.064-.07-2.679-.879-.743-.982-.008-2.349 1.011-2.77 5.23-2.973 9.407-7.534 12.486-12.656 3.455-5.572 5.816-11.715 8.259-17.77 4.111-10.402 7.893-20.928 11.925-31.359 3.017-7.694 6.369-15.421 11.583-21.914 4.949-6.212 12.301-10.505 20.168-11.636.991-.045 2.163-.338 3.03.281.904 1.131-.644 1.981-1.378 2.65-7.442 5.66-11.748 14.274-15.231 22.723-6.538 16.181-11.537 32.976-18.926 48.811-2.984 6.034-6.509 11.942-11.446 16.589-.833.822-1.886 1.461-2.477 2.498-.326 1.081.97 1.576 1.836 1.563 6.732.422 13.49.467 20.226.342 11.265-.391 22.715-2.422 32.774-7.704 9.948-5.063 17.944-13.82 22.034-24.214 4.355-10.855 5.078-22.979 2.865-34.409-1.862-9.708-6.605-19.041-14.204-25.501-9.349-8.021-21.894-11.158-33.976-11.5-10.503-.081-21.28 1.594-30.642 6.569-8.941 4.68-16.098 12.853-19.05 22.554-1.631 5.844-1.886 12.152-.211 18.018.537 1.465-1.824 1.7-2.456.697-3.492-4.656-4.689-10.703-4.458-16.424.264-7.124 3.967-13.667 8.813-18.711 8.029-8.388 19.158-13.16 30.414-15.331 3.492-.714 7.042-1.138 10.592-1.4zm251.565 99.726c3.237-.926 6.951 1.354 7.43 4.72.766 3.422-2.078 6.995-5.58 7.062-3.463.344-6.616-2.839-6.373-6.283.122-2.555 2.013-4.921 4.523-5.499zm-21.093-59.856c4.636-.945 9.485-1.028 14.116 0 3.244.755 6.482 2.398 8.281 5.313 2.35 3.74 2.043 8.635.05 12.458-2.974 5.771-8.322 9.885-13.925 12.928-9.729 5.188-20.707 7.494-31.601 8.568-1.33 4.416-1.714 9.072-1.644 13.666.123 3.543.981 7.295 3.449 9.965 2.078 2.309 5.256 3.365 8.31 3.287 6.069.078 11.931-2.383 16.685-6.035 3.914-2.938 7.196-6.625 10.168-10.489 1.18-1.315 3.666.229 2.561 1.851-6.172 10.877-17.572 19.111-30.221 20.027-6.076.424-12.701-.409-17.588-4.344-4.215-3.297-6.336-8.631-6.8-13.844-.745-8.09 1.189-16.238 4.487-23.595 3.107-6.784 7.463-13.019 12.857-18.178 5.791-5.542 12.931-9.869 20.815-11.578zm-119.647-.371c6.846-.95 14.367-.442 20.211 3.582 5.094 3.463 7.94 9.437 8.701 15.426 1.008 8.074-.623 16.325-3.817 23.76-3.886 8.892-10.233 16.75-18.315 22.162-7.71 5.172-17.204 7.842-26.483 6.785-5.259-.541-10.464-2.785-13.985-6.814-4.689-5.229-6.014-12.602-5.618-19.416.735-11.879 6.08-23.276 14.191-31.908 6.611-7.062 15.465-12.227 25.115-13.577zm80.776 1.688c1.531-1.375 3.785-2.237 5.779-1.358 1.655.661 2.262 2.634 2.044 4.276-.592 6.25-2.836 12.197-5.271 17.936-5.978 14.042-15.033 26.606-25.584 37.57-3.381 3.385-6.927 6.661-10.988 9.229-1.977 1.209-4.145 2.323-6.518 2.36-1.313-.004-2.814-.5-3.39-1.778-1.003-2.226-.728-4.734-.733-7.107.866-14.951 2.781-29.988 1.022-44.951-.603-4.429-1.437-9.048-4.017-12.804-.647-1.024-1.713-1.66-2.492-2.556-.153-.738.779-1.002 1.324-1.143 4.545-.83 9.672.141 13.064 3.435 3.148 2.896 4.462 7.202 4.993 11.33 1.577 12.482.711 25.123-.343 37.612-.103 1.849-.562 3.868.42 5.567 2.23-.037 3.906-1.662 5.396-3.123 9.786-10.192 17.332-22.514 22.059-35.821 1.664-4.75 2.938-9.659 3.472-14.669.151-1.339.108-2.699-.237-4.005zm60.382 59.356c-2.007.435-3.638 2.2-3.938 4.228-.537 2.906 2.01 5.879 4.957 5.857 2.86.145 5.411-2.551 5.185-5.391-.071-3.017-3.282-5.472-6.204-4.694zm-1.246 1.265c1.553.1 3.631-.467 4.68 1.058.66 1.287-.256 2.666-1.539 3.037.697 1.036 1.373 2.081 2.021 3.149-2.34.559-1.939-3.344-4.115-3.183-.008 1.058-.008 2.112-.008 3.17-.261-.008-.787-.024-1.049-.028.014-2.402.014-4.806.01-7.203zm-137.473-58.671c-4.081.961-7.668 3.335-10.756 6.097-4.846 4.4-8.577 9.903-11.45 15.75-4.661 9.755-7.042 20.824-5.511 31.607.66 4.064 2.365 8.635 6.448 10.352 4.61 1.91 9.844.197 13.807-2.428 6.608-4.49 11.257-11.289 14.745-18.363 4.47-9.44 7.156-19.999 6.137-30.483-.466-3.789-1.415-7.884-4.306-10.596-2.391-2.288-6.005-2.684-9.114-1.936zm138.512 59.472c0 .847.008 1.697.025 2.543 1.048.046 2.951.05 2.77-1.49-.145-1.327-1.859-.959-2.795-1.053zm-20.2-58.818c-4.854 2.035-8.729 5.808-12.002 9.836-5.082 6.478-8.709 14.027-11.084 21.886 5.627-.592 11.199-1.939 16.412-4.17 5.465-2.345 10.654-5.662 14.439-10.314 2.712-3.344 4.564-7.631 4.119-12.003-.211-2.212-1.176-4.635-3.318-5.618-2.723-1.275-5.877-.672-8.566.383z" fill="#090a4a" fill-rule="nonzero" transform="matrix(1.16517 0 0 1.16517 46.9655 30.3685)"/></svg>

<?xml version="1.0" encoding="UTF-8" standalone="no"?>
<!DOCTYPE svg PUBLIC "-//W3C//DTD SVG 1.1//EN" "http://www.w3.org/Graphics/SVG/1.1/DTD/svg11.dtd">
<svg width="100%" height="100%" viewBox="0 0 560 400" version="1.1" xmlns="http://www.w3.org/2000/svg" xmlns:xlink="http://www.w3.org/1999/xlink" xml:space="preserve" xmlns:serif="http://www.serif.com/" style="fill-rule:evenodd;clip-rule:evenodd;stroke-linejoin:round;stroke-miterlimit:1.41421;">
    <g id="d" transform="matrix(1.16517,0,0,1.16517,46.9655,30.3685)">
        <path d="M95.363,89.903C108.77,88.975 122.597,90.56 134.898,96.203C145.866,101.161 155.388,109.643 160.816,120.461C166.203,130.979 167.602,143.35 165.278,154.891C163.078,166.056 157.15,176.466 148.54,183.929C138.984,192.325 126.708,197.011 114.321,199.265C103.143,201.335 91.726,201.651 80.386,201.472C71.747,201.353 63.104,201.343 54.481,200.786C53.564,200.671 52.417,200.716 51.802,199.907C51.059,198.925 51.794,197.558 52.813,197.137C58.043,194.164 62.22,189.603 65.299,184.481C68.754,178.909 71.115,172.766 73.558,166.711C77.669,156.309 81.451,145.783 85.483,135.352C88.5,127.658 91.852,119.931 97.066,113.438C102.015,107.226 109.367,102.933 117.234,101.802C118.225,101.757 119.397,101.464 120.264,102.083C121.168,103.214 119.62,104.064 118.886,104.733C111.444,110.393 107.138,119.007 103.655,127.456C97.117,143.637 92.118,160.432 84.729,176.267C81.745,182.301 78.22,188.209 73.283,192.856C72.45,193.678 71.397,194.317 70.806,195.354C70.48,196.435 71.776,196.93 72.642,196.917C79.374,197.339 86.132,197.384 92.868,197.259C104.133,196.868 115.583,194.837 125.642,189.555C135.59,184.492 143.586,175.735 147.676,165.341C152.031,154.486 152.754,142.362 150.541,130.932C148.679,121.224 143.936,111.891 136.337,105.431C126.988,97.41 114.443,94.273 102.361,93.931C91.858,93.85 81.081,95.525 71.719,100.5C62.778,105.18 55.621,113.353 52.669,123.054C51.038,128.898 50.783,135.206 52.458,141.072C52.995,142.537 50.634,142.772 50.002,141.769C46.51,137.113 45.313,131.066 45.544,125.345C45.808,118.221 49.511,111.678 54.357,106.634C62.386,98.246 73.515,93.474 84.771,91.303C88.263,90.589 91.813,90.165 95.363,89.903ZM346.928,189.629C350.165,188.703 353.879,190.983 354.358,194.349C355.124,197.771 352.28,201.344 348.778,201.411C345.315,201.755 342.162,198.572 342.405,195.128C342.527,192.573 344.418,190.207 346.928,189.629ZM325.835,129.773C330.471,128.828 335.32,128.745 339.951,129.773C343.195,130.528 346.433,132.171 348.232,135.086C350.582,138.826 350.275,143.721 348.282,147.544C345.308,153.315 339.96,157.429 334.357,160.472C324.628,165.66 313.65,167.966 302.756,169.04C301.426,173.456 301.042,178.112 301.112,182.706C301.235,186.249 302.093,190.001 304.561,192.671C306.639,194.98 309.817,196.036 312.871,195.958C318.94,196.036 324.802,193.575 329.556,189.923C333.47,186.985 336.752,183.298 339.724,179.434C340.904,178.119 343.39,179.663 342.285,181.285C336.113,192.162 324.713,200.396 312.064,201.312C305.988,201.736 299.363,200.903 294.476,196.968C290.261,193.671 288.14,188.337 287.676,183.124C286.931,175.034 288.865,166.886 292.163,159.529C295.27,152.745 299.626,146.51 305.02,141.351C310.811,135.809 317.951,131.482 325.835,129.773ZM206.188,129.402C213.034,128.452 220.555,128.96 226.399,132.984C231.493,136.447 234.339,142.421 235.1,148.41C236.108,156.484 234.477,164.735 231.283,172.17C227.397,181.062 221.05,188.92 212.968,194.332C205.258,199.504 195.764,202.174 186.485,201.117C181.226,200.576 176.021,198.332 172.5,194.303C167.811,189.074 166.486,181.701 166.882,174.887C167.617,163.008 172.962,151.611 181.073,142.979C187.684,135.917 196.538,130.752 206.188,129.402ZM286.964,131.09C288.495,129.715 290.749,128.853 292.743,129.732C294.398,130.393 295.005,132.366 294.787,134.008C294.195,140.258 291.951,146.205 289.516,151.944C283.538,165.986 274.483,178.55 263.932,189.514C260.551,192.899 257.005,196.175 252.944,198.743C250.967,199.952 248.799,201.066 246.426,201.103C245.113,201.099 243.612,200.603 243.036,199.325C242.033,197.099 242.308,194.591 242.303,192.218C243.169,177.267 245.084,162.23 243.325,147.267C242.722,142.838 241.888,138.219 239.308,134.463C238.661,133.439 237.595,132.803 236.816,131.907C236.663,131.169 237.595,130.905 238.14,130.764C242.685,129.934 247.812,130.905 251.204,134.199C254.352,137.095 255.666,141.401 256.197,145.529C257.774,158.011 256.908,170.652 255.854,183.141C255.751,184.99 255.292,187.009 256.274,188.708C258.504,188.671 260.18,187.046 261.67,185.585C271.456,175.393 279.002,163.071 283.729,149.764C285.393,145.014 286.667,140.105 287.201,135.095C287.352,133.756 287.309,132.396 286.964,131.09ZM347.346,190.446C345.339,190.881 343.708,192.646 343.408,194.674C342.871,197.58 345.418,200.553 348.365,200.531C351.225,200.676 353.776,197.98 353.55,195.14C353.479,192.123 350.268,189.668 347.346,190.446ZM346.1,191.711C347.653,191.811 349.731,191.244 350.78,192.769C351.44,194.056 350.524,195.435 349.241,195.806C349.938,196.842 350.614,197.887 351.262,198.955C348.922,199.514 349.323,195.611 347.147,195.772C347.139,196.83 347.139,197.884 347.139,198.942C346.878,198.934 346.352,198.918 346.09,198.914C346.104,196.512 346.104,194.108 346.1,191.711ZM208.627,133.04C204.546,134.001 200.959,136.375 197.871,139.137C193.025,143.537 189.294,149.04 186.421,154.887C181.76,164.642 179.379,175.711 180.91,186.494C181.57,190.558 183.275,195.129 187.358,196.846C191.968,198.756 197.202,197.043 201.165,194.418C207.773,189.928 212.422,183.129 215.91,176.055C220.38,166.615 223.066,156.056 222.047,145.572C221.581,141.783 220.632,137.688 217.741,134.976C215.35,132.688 211.736,132.292 208.627,133.04ZM347.139,192.512C347.139,193.359 347.147,194.209 347.164,195.055C348.212,195.101 350.115,195.105 349.934,193.565C349.789,192.238 348.075,192.606 347.139,192.512ZM326.939,133.694C322.085,135.729 318.21,139.502 314.937,143.53C309.855,150.008 306.228,157.557 303.853,165.416C309.48,164.824 315.052,163.477 320.265,161.246C325.73,158.901 330.919,155.584 334.704,150.932C337.416,147.588 339.268,143.301 338.823,138.929C338.612,136.717 337.647,134.294 335.505,133.311C332.782,132.036 329.628,132.639 326.939,133.694Z" style="fill:rgb(9,10,74);fill-rule:nonzero;"/>
    </g>
</svg>
